X:73
T:Mississippi Sawyer
C:Traditional
M:4/4
L:1/8
Q:1/8=460
K:D
fg|:abaf abaf|abaf bfaf|gage gage|gage gbag|
fefg fede|fa2f abag|fedf edce|1 d2[fd][fd] [f2d2]fg:|2 d2[fd][fd] [f2d2] AB|
|:defA d2f2|defg afec|ABcB ABcB|Aece Aece|
dAfA d2f2|defa abag|fedf edce|1 d2[fd][fd] [f2d2]AB:|2 d2[fd][fd] [f4d4] |]
